X:1
T:Title
%%score { ( 1 3 4 ) | ( 2 5 ) }
L:1/8
Q:1/4=92
M:4/4
K:F
V:1 treble nm="Grand Piano"
V:3 treble 
V:4 treble 
V:2 bass 
V:5 bass 
V:1
 D2 F2 [FA]2 A2 | A2 G2 A2 A2 | [Ad]3 [Fd] [CGc]2 [CEB]2 | [CFA]6 z2 | %4
w: Caryl~Florio * * *||||
 [A,CA]2 [A,E]2 [A,DF]2 [DFA]2 | [^CEA]2 [A,E]2 [A,DF]2 [DA]2 | [^CEA]2 [DFA]2 [=B,F=B]2 [B,^FA]2 | %7
w: |||
 [=B,E_A]6 z2 | [_A,E]2 [=B,E_A]2 [=A,E=A]2 [A,FA]2 | =B4 z4 | [^CA]2 [EA^c]2 [DAd]2 [DBd]2 | %11
w: ||||
 e4 z4 | f3 f e2 d2 | c2 B2 A2 [A,^CA]2 | z4[K:bass] E4 | [^F,D]6 z2 |] %16
w: |||||
V:2
 [D,F,]2 [D,A,D]2 [D,D]2[K:treble] [F,DF]2 | [B,DF]2 [B,DE]2 [A,^CE]2 [G,CE]2 | %2
 [F,D]3 [D,A,] E,2 C,2 | F,6 z2 | E,2 ^C,2 D,2 =B,,2 | A,,2 ^C,2 D,2 F,2 | A,2 F,2 D,2 _E,2 | %7
 E,6 z2 | E,2 D,2 C,2 D,2 | [=B,,A,]2 [E,_A,]2 [A,,=A,]2 A,2 | A,2 G,2 F,2 G,2 | %11
 [E,D]2 [A,^C]2 D4 | [A,DF]3 [A,DF] [A,^CG]2 [B,DF]2 | [F,A,F]2[K:bass] [G,D]2 [A,^C]2 A,,2 | %14
 ^C,2 D,2 G,,2 z D | D,6 z2 |] %16
V:3
 x8 | x8 | x8 | x8 | x8 | x8 | x8 | x8 | x8 | E2 z =B [Cc]2 A2 | x8 | z2 G2 [Ff]4 | x8 | x8 | %14
 [A,EG]2 [A,DF]2[K:bass] [B,D]2 [A,^C]2 | x8 |] %16
V:4
 x8 | x8 | x8 | x8 | x8 | x8 | x8 | x8 | x8 | z2 D2 z4 | x8 | A2 z e z2 F,2 | x8 | x8 | %14
 x4[K:bass] x4 | x8 |] %16
V:5
 x6[K:treble] x2 | x8 | x8 | x8 | x8 | x8 | x8 | x8 | x8 | x8 | x8 | z4 D,2 z2 | x8 | %13
 x2[K:bass] x6 | z4 z2 A,,2 | x8 |] %16

